svgs/solid/album-circle-user.svg

<svg xmlns="http://www.w3.org/2000/svg" viewBox="0 0 576 512"><!--! Font Awesome Pro 6.4.2 by @fontawesome - https://fontawesome.com License - https://fontawesome.com/license (Commercial License) Copyright 2023 Fonticons, Inc. --><path d="M0 96C0 60.7 28.7 32 64 32H384c35.3 0 64 28.7 64 64v96.7c-5.3-.5-10.6-.7-16-.7c-20.1 0-39.5 3.4-57.5 9.6C352.3 140 293.3 96 224 96C135.6 96 64 167.6 64 256s71.6 160 160 160c12.9 0 25.4-1.5 37.4-4.4c6.5 25.5 18.5 48.7 34.8 68.4H64c-35.3 0-64-28.7-64-64V96zM224 224a32 32 0 1 1 0 64 32 32 0 1 1 0-64zm64 144a144 144 0 1 1 288 0 144 144 0 1 1 -288 0zm221.7 80.7c-6.2-19-24-32.7-45.1-32.7H399.4c-21 0-38.9 13.7-45.1 32.7C374.5 468.1 401.8 480 432 480s57.5-11.9 77.7-31.3zM480 336a48 48 0 1 0 -96 0 48 48 0 1 0 96 0z"/></svg>

<svg xmlns="http://www.w3.org/2000/svg" viewBox="0 0 576 512"><!--! Font Awesome Pro 6.1.1 by @fontawesome - https://fontawesome.com License - https://fontawesome.com/license (Commercial License) Copyright 2022 Fonticons, Inc. --><path d="M0 96C0 60.65 28.65 32 64 32H384C419.3 32 448 60.65 448 96V192.7C442.7 192.2 437.4 192 432 192C411.9 192 392.5 195.4 374.5 201.6C352.3 140 293.3 96 224 96C135.6 96 64 167.6 64 256C64 344.4 135.6 416 224 416C236.9 416 249.4 414.5 261.4 411.6C267.9 437.1 279.1 460.3 296.2 480H64C28.65 480 .0003 451.3 .0003 416L0 96zM192 256C192 238.3 206.3 224 224 224C241.7 224 256 238.3 256 256C256 273.7 241.7 288 224 288C206.3 288 192 273.7 192 256zM576 368C576 447.5 511.5 512 432 512C352.5 512 288 447.5 288 368C288 288.5 352.5 224 432 224C511.5 224 576 288.5 576 368zM464.6 416H399.4C378.4 416 360.5 429.7 354.3 448.7C374.5 468.1 401.8 480 432 480C462.2 480 489.5 468.1 509.7 448.7C503.5 429.7 485.6 416 464.6 416V416zM432 288C405.5 288 384 309.5 384 336C384 362.5 405.5 384 432 384C458.5 384 480 362.5 480 336C480 309.5 458.5 288 432 288z"/></svg>
